public/images/icons/bde/parteners/LOGO_RENAISSANCE.svg

<svg width="200" height="60" viewBox="0 0 200 60" fill="none" xmlns="http://www.w3.org/2000/svg">
<path d="M9.5625 22.0859H14.6957C18.3262 22.0859 20.3394 23.7406 20.3394 26.9999C20.3394 29.741 18.9224 31.3037 16.3129 31.755L20.5191 37.9392H19.1919L15.0755 31.8679H10.6243V37.9351H9.5625V22.0859ZM15.0061 30.7814C17.6605 30.7814 19.2123 29.5822 19.2123 26.9999C19.2123 24.5095 17.6646 23.1724 15.0061 23.1724H10.6243V30.7814H15.0061Z" fill="#D9D9D9"/>
<path d="M27.0781 22.0859H36.928V23.1724H28.1399V29.3106H36.5074V30.397H28.1399V36.8528H36.928V37.9392H27.0781V22.0859Z" fill="#D9D9D9"/>
<path d="M42.9805 22.0859H44.7079L53.5165 34.9725V22.0859H55.2194V37.9392H53.4715L44.663 25.0986V37.9392H42.9805V22.0859Z" fill="#D9D9D9"/>
<path d="M66.4432 22.0859H68.3462L74.3901 37.9392H72.5729L71.1558 34.2914H63.5887L62.2166 37.9392H60.3789L66.4432 22.0859ZM70.5392 32.6409L67.3743 24.3089L64.2543 32.6409H70.5392Z" fill="#D9D9D9"/>
<path d="M79.5547 22.0859H81.2372V37.9392H79.5547V22.0859Z" fill="#D9D9D9"/>
<path d="M87.0195 35.152L88.8123 33.2968C89.7638 34.567 91.0501 35.7412 93.529 35.7412C95.4973 35.7412 96.4733 34.7885 96.4733 33.5893C96.4733 32.5697 95.8526 31.688 94.0394 31.3705L92.1568 31.0529C89.3227 30.5766 87.6198 28.9469 87.6198 26.3646C87.6198 23.5358 90.1436 21.8142 93.0879 21.8142C95.8322 21.8142 97.58 23.0134 98.8215 24.3506L96.9838 26.3437C96.1221 25.2782 94.8807 24.2586 92.9777 24.2586C91.0747 24.2586 90.2783 25.345 90.2783 26.2978C90.2783 27.3633 90.944 28.1112 92.7367 28.4246L94.2845 28.6962C97.6045 29.2854 99.1318 31.0278 99.1318 33.5433C99.1318 36.2176 96.943 38.1856 93.2023 38.1856C90.3151 38.1898 88.3018 36.8067 87.0195 35.152Z" fill="#D9D9D9"/>
<path d="M104.281 35.152L106.074 33.2968C107.025 34.567 108.312 35.7412 110.791 35.7412C112.759 35.7412 113.735 34.7885 113.735 33.5893C113.735 32.5697 113.114 31.688 111.301 31.3705L109.419 31.0529C106.584 30.5766 104.882 28.9469 104.882 26.3646C104.882 23.5358 107.405 21.8142 110.35 21.8142C113.094 21.8142 114.842 23.0134 116.083 24.3506L114.246 26.3437C113.384 25.2782 112.142 24.2586 110.239 24.2586C108.336 24.2586 107.54 25.345 107.54 26.2978C107.54 27.3633 108.202 28.1112 109.998 28.4246L111.546 28.6962C114.866 29.2854 116.394 31.0278 116.394 33.5433C116.394 36.2176 114.205 38.1856 110.464 38.1856C107.581 38.1898 105.568 36.8067 104.281 35.152Z" fill="#D9D9D9"/>
<path d="M126.588 22.0859H129.732L135.797 37.9392H132.387L131.149 34.8137H125.15L123.933 37.9392H120.523L126.588 22.0859ZM130.088 31.8261L128.16 26.6614L126.237 31.8261H130.088Z" fill="#D9D9D9"/>
<path d="M140.605 22.0859H144.567L150.831 32.8206V22.0859H154.106V37.9392H150.165L143.901 27.2506V37.9392H140.605V22.0859Z" fill="#D9D9D9"/>
<path d="M159.656 29.9916C159.656 25.3701 163.042 21.8142 167.603 21.8142C170.413 21.8142 172.295 22.9257 173.733 24.6431L171.189 27.3173C170.327 26.2978 169.551 25.5498 167.803 25.5498C165.59 25.5498 163.818 27.4301 163.818 29.9874C163.818 32.5906 165.545 34.45 167.844 34.45C169.682 34.45 170.633 33.6561 171.63 32.2521L174.064 35.0141C172.626 36.9864 170.433 38.1856 167.513 38.1856C162.931 38.1898 159.656 34.6548 159.656 29.9916Z" fill="#D9D9D9"/>
<path d="M178.75 22.0859H190.438V25.7087H182.777V28.1114H190.058V31.5962H182.777V34.3165H190.438V37.9392H178.75V22.0859Z" fill="#D9D9D9"/>
</svg>

<svg fill="none" viewBox="0 0 200 60"><path fill="#D9D9D9" d="M9.563 22.086h5.133c3.63 0 5.643 1.655 5.643 4.914 0 2.741-1.417 4.304-4.026 4.755l4.206 6.184h-1.327l-4.117-6.071h-4.45v6.067H9.561v-15.85zm5.443 8.695c2.654 0 4.206-1.199 4.206-3.781 0-2.49-1.547-3.828-4.206-3.828h-4.382v7.61h4.382zm12.072-8.695h9.85v1.086H28.14v6.139h8.367v1.086H28.14v6.456h8.788v1.086h-9.85V22.086zm15.902 0h1.728l8.809 12.886V22.086h1.702v15.853h-1.748L44.663 25.1v12.84h-1.682V22.086zm23.463 0h1.903l6.044 15.853h-1.817l-1.417-3.648h-7.567l-1.372 3.648h-1.838l6.064-15.853zM70.54 32.64l-3.165-8.332-3.12 8.332h6.285zm9.016-10.555h1.682v15.853h-1.682V22.086zm7.464 13.066l1.793-1.855c.952 1.27 2.238 2.444 4.717 2.444 1.968 0 2.944-.953 2.944-2.152 0-1.02-.62-1.901-2.434-2.218l-1.882-.318c-2.834-.476-4.537-2.106-4.537-4.688 0-2.83 2.524-4.55 5.468-4.55 2.744 0 4.492 1.198 5.734 2.536l-1.838 1.993c-.862-1.066-2.103-2.085-4.006-2.085s-2.7 1.086-2.7 2.039c0 1.065.666 1.813 2.459 2.127l1.547.271c3.32.59 4.848 2.332 4.848 4.847 0 2.675-2.189 4.643-5.93 4.643-2.887.004-4.9-1.38-6.183-3.034zm17.262 0l1.793-1.855c.951 1.27 2.238 2.444 4.717 2.444 1.968 0 2.944-.953 2.944-2.152 0-1.02-.621-1.901-2.434-2.218l-1.882-.318c-2.835-.476-4.537-2.106-4.537-4.688 0-2.83 2.523-4.55 5.468-4.55 2.744 0 4.492 1.198 5.733 2.536l-1.837 1.993c-.862-1.066-2.104-2.085-4.007-2.085-1.903 0-2.699 1.086-2.699 2.039 0 1.065.662 1.813 2.458 2.127l1.548.271c3.32.59 4.848 2.332 4.848 4.847 0 2.675-2.189 4.643-5.93 4.643-2.883.004-4.896-1.38-6.183-3.034zm22.307-13.066h3.144l6.065 15.853h-3.41l-1.238-3.125h-5.999l-1.217 3.125h-3.41l6.065-15.853zm3.5 9.74l-1.928-5.165-1.923 5.165h3.851zm10.517-9.74h3.962l6.264 10.735V22.086h3.275v15.853h-3.941l-6.264-10.688v10.688h-3.296V22.086zm19.051 7.906c0-4.622 3.386-8.178 7.947-8.178 2.81 0 4.692 1.112 6.13 2.83l-2.544 2.673c-.862-1.02-1.638-1.767-3.386-1.767-2.213 0-3.985 1.88-3.985 4.437 0 2.604 1.727 4.463 4.026 4.463 1.838 0 2.789-.794 3.786-2.198l2.434 2.762c-1.438 1.972-3.631 3.172-6.551 3.172-4.582.004-7.857-3.531-7.857-8.194zm19.094-7.906h11.688v3.623h-7.661v2.402h7.281v3.485h-7.281v2.72h7.661v3.623H178.75V22.086z"/></svg>
